src/assets/icons/menu.svg

<svg width="16" height="16" viewBox="0 0 16 16" fill="none" xmlns="http://www.w3.org/2000/svg">
<g clip-path="url(#clip0_8874_15293)">
<path fill-rule="evenodd" clip-rule="evenodd" d="M0.728298 1.65902C0.400665 1.69701 0.0884676 1.98857 0.0193374 2.32114C-0.0779987 2.78931 0.217138 3.24418 0.682194 3.34276C0.852079 3.37876 15.1494 3.37876 15.3193 3.34276C15.7844 3.24416 16.0807 2.78724 15.9817 2.32114C15.908 1.97385 15.6035 1.69819 15.2488 1.65765C15.0712 1.63738 0.903568 1.6387 0.728298 1.65902ZM0.637526 7.17159C0.40899 7.23313 0.182009 7.42184 0.0836299 7.63208C-0.0711267 7.96278 -0.00514185 8.33975 0.252609 8.5975C0.377331 8.7222 0.490257 8.78892 0.644843 8.82918C0.730879 8.85159 1.62236 8.85468 8.00073 8.85468C15.9348 8.85468 15.3389 8.86229 15.5439 8.75841C15.6754 8.69176 15.8531 8.50614 15.9178 8.36783C16.0726 8.03714 16.0066 7.66017 15.7489 7.40242C15.6241 7.27772 15.5112 7.211 15.3566 7.17074C15.2128 7.13327 0.776658 7.1341 0.637526 7.17159ZM0.674211 12.6579C0.364339 12.7254 0.0977158 12.983 0.0269274 13.2833C-0.0933666 13.7937 0.24266 14.284 0.752658 14.3423C0.9508 14.3649 15.0507 14.3649 15.2488 14.3423C15.6753 14.2935 16.0018 13.9238 16.0007 13.4907C15.9997 13.0906 15.7137 12.7408 15.3193 12.6572C15.1551 12.6223 0.834267 12.6231 0.674211 12.6579Z" fill="currentColor"/>
</g>
<defs>
<clipPath id="clip0_8874_15293">
<rect width="16" height="16" fill="white"/>
</clipPath>
</defs>
</svg>

<svg xmlns="http://www.w3.org/2000/svg" width="16" height="16" fill="none">
  <g clip-path="url(#a)">
    <path fill="currentColor" fill-rule="evenodd" d="M.728 1.659c-.327.038-.64.33-.709.662a.86.86 0 0 0 .663 1.022c.17.036 14.467.036 14.637 0a.86.86 0 0 0 .663-1.022.861.861 0 0 0-.733-.663c-.178-.02-14.345-.02-14.52.001Zm-.09 5.513a.912.912 0 0 0-.554.46.843.843 0 0 0 .169.966.803.803 0 0 0 .392.231c.086.023.977.026 7.356.026 7.934 0 7.338.007 7.543-.097a1.01 1.01 0 0 0 .374-.39.843.843 0 0 0-.17-.966.803.803 0 0 0-.391-.231c-.144-.038-14.58-.037-14.72 0Zm.036 5.486a.854.854 0 0 0 .078 1.684c.199.023 14.299.023 14.497 0a.856.856 0 0 0 .752-.851.86.86 0 0 0-.682-.834c-.164-.035-14.485-.034-14.645 0Z" clip-rule="evenodd"/>
  </g>
  <defs>
    <clipPath id="a">
      <path fill="#fff" d="M0 0h16v16H0z"/>
    </clipPath>
  </defs>
</svg>
